assets/efishery/petugas-fill.svg

<svg width="24" height="25" viewBox="0 0 24 25" fill="none" xmlns="http://www.w3.org/2000/svg">
<path fill-rule="evenodd" clip-rule="evenodd" d="M11.75 2.27344C9.12665 2.27344 7 4.40008 7 7.02344C7 7.43765 7.33579 7.77344 7.75 7.77344H8V10.0234C8 12.0945 9.67893 13.7734 11.75 13.7734C13.8211 13.7734 15.5 12.0945 15.5 10.0234V7.77344H17.75C18.1642 7.77344 18.5 7.43765 18.5 7.02344C18.5 6.60922 18.1642 6.27344 17.75 6.27344H16.4411C16.0815 4.00645 14.1182 2.27344 11.75 2.27344ZM14 7.77344V10.0234C14 11.2661 12.9926 12.2734 11.75 12.2734C10.5074 12.2734 9.5 11.2661 9.5 10.0234V7.77344H14Z" fill="#1D1D1D"/>
<path fill-rule="evenodd" clip-rule="evenodd" d="M15.25 13.2734C14.9677 13.2734 14.7094 13.432 14.5815 13.6834L14.5787 13.6887C14.5748 13.6958 14.5673 13.7094 14.556 13.7286C14.5333 13.7671 14.4958 13.8274 14.4427 13.9024C14.3359 14.0532 14.1697 14.258 13.9392 14.4629C13.4846 14.867 12.7804 15.2734 11.75 15.2734C10.7196 15.2734 10.0154 14.867 9.56077 14.4629C9.33029 14.258 9.16414 14.0532 9.05733 13.9024C9.00421 13.8274 8.96668 13.7671 8.94401 13.7286C8.93269 13.7094 8.92516 13.6958 8.92131 13.6887L8.91849 13.6834C8.79062 13.432 8.53235 13.2734 8.25 13.2734H7.75C5.67893 13.2734 4 14.9524 4 17.0234V21.0234C4 21.4377 4.33579 21.7734 4.75 21.7734H18.75C19.1642 21.7734 19.5 21.4377 19.5 21.0234V17.0234C19.5 14.9524 17.8211 13.2734 15.75 13.2734H15.25ZM11 16.7196V20.2734H12.5V16.7196C12.2634 16.7543 12.0135 16.7734 11.75 16.7734C11.4865 16.7734 11.2366 16.7543 11 16.7196Z" fill="#1D1D1D"/>
</svg>

<svg viewBox="0 0 24 25" xmlns="http://www.w3.org/2000/svg">
  <path fill-rule="evenodd" clip-rule="evenodd" d="M11.75 2.273A4.75 4.75 0 0 0 7 7.023c0 .415.336.75.75.75H8v2.25a3.75 3.75 0 1 0 7.5 0v-2.25h2.25a.75.75 0 0 0 0-1.5h-1.309a4.751 4.751 0 0 0-4.691-4zm2.25 5.5v2.25a2.25 2.25 0 1 1-4.5 0v-2.25H14z"/>
  <path fill-rule="evenodd" clip-rule="evenodd" d="M15.25 13.273a.75.75 0 0 0-.668.41l-.003.006-.023.04a3.347 3.347 0 0 1-.617.734c-.454.404-1.159.81-2.189.81s-1.735-.406-2.19-.81a3.348 3.348 0 0 1-.616-.734 1.305 1.305 0 0 1-.023-.04l-.003-.006a.75.75 0 0 0-.668-.41h-.5A3.75 3.75 0 0 0 4 17.023v4c0 .415.336.75.75.75h14a.75.75 0 0 0 .75-.75v-4a3.75 3.75 0 0 0-3.75-3.75h-.5zM11 16.72v3.553h1.5V16.72a5.162 5.162 0 0 1-1.5 0z"/>
</svg>
